svgs/regular/shop-lock.svg

<svg xmlns="http://www.w3.org/2000/svg" viewBox="0 0 640 512"><!--! Font Awesome Pro 6.3.0 by @fontawesome - https://fontawesome.com License - https://fontawesome.com/license (Commercial License) Copyright 2023 Fonticons, Inc. --><path d="M0 185.8c0-6.4 1.6-12.7 4.7-18.3L82.4 25C90.8 9.6 106.9 0 124.5 0h391c17.6 0 33.7 9.6 42.1 25l77.7 142.4c3.1 5.6 4.7 11.9 4.7 18.3c0 12.4-5.9 23.3-14.9 30.3c-9.6-16.7-23.4-30.6-39.9-40.4L515.5 48l-391 0L54.7 176H470.3c-18.8 11.3-34 28-43.5 48H384V472c0 22.1-17.9 40-40 40H104c-22.1 0-40-17.9-40-40V224H38.2C17.1 224 0 206.9 0 185.8zM112 224v96H336V224H112zm0 240H336V368H112v96zM528 240c-17.7 0-32 14.3-32 32v48h64V272c0-17.7-14.3-32-32-32zm-80 32c0-44.2 35.8-80 80-80s80 35.8 80 80v48c17.7 0 32 14.3 32 32V480c0 17.7-14.3 32-32 32H448c-17.7 0-32-14.3-32-32V352c0-17.7 14.3-32 32-32V272z"/></svg>

<svg xmlns="http://www.w3.org/2000/svg" viewBox="0 0 640 512"><!--! Font Awesome Pro 6.2.0 by @fontawesome - https://fontawesome.com License - https://fontawesome.com/license (Commercial License) Copyright 2022 Fonticons, Inc. --><path d="M.0006 185.8C.0006 179.4 1.606 173.1 4.671 167.4L82.36 25.02C90.77 9.595 106.9 0 124.5 0H515.5C533.1 0 549.2 9.595 557.6 25.02L635.3 167.4C638.4 173.1 640 179.4 640 185.8C640 198.1 634.1 209.1 625.1 216.1C615.4 199.4 601.7 185.5 585.1 175.6L515.5 48H124.5L54.68 176H470.3C451.5 187.3 436.3 204 426.8 224H384V472C384 494.1 366.1 512 344 512H103.1C81.91 512 63.1 494.1 63.1 472V224H38.25C17.12 224 0 206.9 0 185.8H.0006zM112 224V320H336V224H112zM336 464V368H112V464H336zM528 192C572.2 192 608 227.8 608 272V320C625.7 320 640 334.3 640 352V480C640 497.7 625.7 512 608 512H448C430.3 512 416 497.7 416 480V352C416 334.3 430.3 320 448 320V272C448 227.8 483.8 192 528 192zM528 240C510.3 240 496 254.3 496 272V320H560V272C560 254.3 545.7 240 528 240z"/></svg>
